X: 49
M: 3/4
L: 1/8
K: G
V: 1
|:\
|:\
dffeed | eggffe | faA2^c2 | d4D2 |\
V: 2 clef=bass middle=d
z2d'2d2 | z2d2g2 | z2d'2g2 | d6 |
z2d'2d2 | z2d2g2 | z2d'2d2 | g2d2G2 :||: d4z2 |
d4z2 | ^c4d2 | A4z2 | d2B2z2 | ^c2A2z2 |
d2a2A2 | d6 | d6 | d6 | d4g2 |
d4z2 | B2d2e2 | f2d2f2 | g2d2D2 | HG2B2d2 :|


